X:38
T:A honvédnak nem kell más
O:Hódmezővásárhely
Q:"Menetelő"
L:1/8
K:D
BAGF BADF | EB,3 B,2 z2 | 
dded cBFB | A F3 F2 z2 | 
dded cBFB | A F3 F2 z2 | 
BAGF BADF | E B,3 B,2 z2 |

